UNB/img/home/logo-big.svg

<svg width="132" height="308" viewBox="0 0 132 308" fill="none" xmlns="http://www.w3.org/2000/svg">
<path d="M57.082 265.633H57.8764C58.109 265.752 58.3271 265.898 58.5264 266.067L59.2125 266.861L78.7125 291.525V265.453H87.1264V306.619H81.9264C81.2968 306.637 80.6703 306.526 80.0847 306.294C79.5156 305.986 79.0126 305.569 78.6042 305.067L59.2486 280.583V306.619H51.0514V265.561H56.0709C56.4096 265.543 56.7492 265.568 57.082 265.633Z" fill="#0E273D"/>
<path d="M21.7295 299.108C22.9658 299.152 24.1971 298.93 25.3406 298.458C26.314 298.065 27.1803 297.446 27.8684 296.653C28.5933 295.811 29.1345 294.827 29.4573 293.764C29.8182 292.509 29.9648 291.203 29.8906 289.9V265.561H39.3878V289.9C39.416 292.268 38.9995 294.619 38.1601 296.833C37.3606 298.878 36.1288 300.726 34.5489 302.25C32.9769 303.84 31.0799 305.072 28.9878 305.861C26.6765 306.715 24.2296 307.143 21.7656 307.125C19.2418 307.156 16.7333 306.728 14.3628 305.861C12.2797 305.054 10.3862 303.825 8.80174 302.25C7.22016 300.727 5.98807 298.879 5.19063 296.833C4.35119 294.619 3.93472 292.268 3.96285 289.9V265.561H13.6045V289.864C13.584 291.172 13.7667 292.476 14.1462 293.728C14.4683 294.802 15.0093 295.798 15.7351 296.653C16.4295 297.455 17.3098 298.075 18.299 298.458C19.3857 298.908 20.5535 299.13 21.7295 299.108Z" fill="#0E273D"/>
<path fill-rule="evenodd" clip-rule="evenodd" d="M99.0793 265.561V306.619H115.582C117.809 306.666 120.029 306.349 122.154 305.68C123.925 305.147 125.571 304.263 126.993 303.08C128.262 302.006 129.274 300.661 129.954 299.144C130.65 297.613 131.007 295.95 131.002 294.269C131.01 292.221 130.264 290.242 128.907 288.708C127.262 287.066 125.161 285.959 122.877 285.53C124.008 285.133 125.087 284.599 126.09 283.941C126.913 283.369 127.644 282.675 128.257 281.883C128.8 281.152 129.215 280.334 129.485 279.464C129.745 278.609 129.879 277.721 129.882 276.827C129.905 275.244 129.61 273.673 129.015 272.205C128.457 270.768 127.506 269.517 126.271 268.594C124.816 267.523 123.157 266.761 121.396 266.355C119.033 265.778 116.605 265.511 114.174 265.561H99.0793ZM113.56 282.858H108.613V272.675H114.174C115.106 272.672 116.037 272.756 116.954 272.927C117.661 273.068 118.327 273.364 118.904 273.794C119.41 274.202 119.797 274.738 120.024 275.347C120.292 276.137 120.414 276.969 120.385 277.802C120.415 278.657 120.254 279.509 119.915 280.294C119.624 280.917 119.16 281.443 118.579 281.811C117.921 282.225 117.183 282.496 116.413 282.605C115.471 282.771 114.516 282.855 113.56 282.858ZM108.613 299.433V289.214H115.257C116.266 289.192 117.274 289.301 118.254 289.539C118.952 289.73 119.603 290.062 120.168 290.514C120.637 290.917 120.987 291.442 121.179 292.03C121.374 292.687 121.471 293.368 121.468 294.052C121.455 294.71 121.37 295.364 121.215 296.002C121.034 296.642 120.713 297.234 120.277 297.736C119.749 298.279 119.108 298.698 118.399 298.964C117.414 299.312 116.373 299.471 115.329 299.433H108.613Z" fill="#0E273D"/>
<path d="M125.909 161.561C119.626 131.625 104.568 109.958 90.8456 85.7277C79.2539 59.7277 67.4095 33.3666 65.5678 0C46.6817 36.8333 50.365 64.5305 60.2956 91.2888C70.2261 118.047 90.3761 151.667 90.3761 179.4C89.8706 193.086 87.09 203.125 79.0372 212.839C70.9845 222.553 59.7178 220.494 46.2845 224.069C49.2817 224.864 52.1345 225.586 55.0956 226.128C58.1459 226.685 61.2392 226.975 64.34 226.994C84.7789 226.994 101.932 225.694 113.993 211.792C126.054 197.889 130.243 182.108 125.909 161.561Z" fill="url(#paint0_linear_879_21247)"/>
<path d="M128.69 160.622C128.401 159.25 127.968 157.95 127.643 156.614C125.115 147.297 113.596 120.756 88.8236 80.7807L88.4625 80.2751C90.7013 86.1251 104.46 113.136 105.362 122.2C106.265 131.264 109.407 138.847 108.974 146.322C108.107 159.972 97.6347 172.07 90.3764 179.328C89.6541 192.003 83.6597 225.189 46.5014 230.389C48.9208 231.039 51.268 231.581 53.7236 232.014C57.6549 232.734 61.6435 233.097 65.6403 233.097C71.8705 232.996 78.0612 232.085 84.0569 230.389V230.389C86.9665 229.603 89.8247 228.638 92.6152 227.5C100.039 224.221 106.843 219.689 112.729 214.103C113.524 213.345 114.318 212.55 115.076 211.72C121.351 204.965 125.873 196.775 128.247 187.866C130.62 178.958 130.772 169.603 128.69 160.622Z" fill="#16406D"/>
<path d="M23.4627 164.991C23.4627 164.775 23.4627 164.594 23.4627 164.414C19.9238 151.341 22.6682 133.611 32.346 108.911C25.6324 117.315 19.434 126.118 13.7849 135.272C-9.47065 176.114 3.85434 198.105 15.6627 211.43C11.4016 198.611 14.8682 177.305 23.4627 164.991Z" fill="#16406D"/>
<path d="M72.0683 37.6638C72.0683 37.6638 72.6461 40.0471 74.0183 44.0194C75.3905 47.9916 77.6294 53.5527 80.4822 60.161C83.335 66.7694 86.91 74.3888 90.7739 82.5499C94.6378 90.711 98.5016 99.5582 102.113 108.514C103.98 112.978 105.619 117.534 107.024 122.164C108.483 126.688 109.416 131.365 109.804 136.103C110.214 140.522 110.056 144.976 109.335 149.355C108.036 156.596 105.041 163.427 100.596 169.289C99.0164 171.304 97.3161 173.221 95.5044 175.03C93.9878 176.511 92.7239 177.594 91.8933 178.317L90.5572 179.4C90.5572 179.4 92.2905 177.703 95.035 174.561C96.668 172.638 98.1757 170.611 99.5489 168.494C101.282 165.78 102.769 162.916 103.991 159.936C105.399 156.461 106.357 152.82 106.843 149.103C107.463 144.906 107.572 140.65 107.168 136.428C106.727 131.916 105.77 127.469 104.316 123.175C102.907 118.733 101.246 114.219 99.5489 109.778C95.9378 100.822 92.3267 92.0471 88.7155 83.7777C85.1044 75.5082 81.9267 67.6721 79.2905 60.9194C76.6544 54.1666 74.885 48.3888 73.8017 44.3083C73.26 42.286 72.935 40.6971 72.7183 39.5416L72.0683 37.6638Z" fill="#DF625F"/>
<path d="M90.3766 179.4C68.5294 195.758 30.5405 190.233 23.4266 164.955C13.0989 176.691 9.77664 198.611 15.6628 211.43C23.8859 220.527 34.5145 227.112 46.3211 230.424V230.424C86.946 225.658 90.0516 192.002 90.3766 179.4Z" fill="#055190"/>
<defs>
<linearGradient id="paint0_linear_879_21247" x1="121.576" y1="204.208" x2="-11.096" y2="17.875" gradientUnits="userSpaceOnUse">
<stop stop-color="#810060"/>
<stop offset="0.51" stop-color="#D5642A"/>
<stop offset="1" stop-color="#FCB457"/>
</linearGradient>
</defs>
</svg>

<svg width="132" height="308" fill="none" xmlns="http://www.w3.org/2000/svg"><path d="M57.082 265.633h.794a3.4 3.4 0 01.65.434l.686.794 19.5 24.664v-26.072h8.414v41.166h-5.2a4.64 4.64 0 01-1.841-.325 4.94 4.94 0 01-1.48-1.227l-19.356-24.484v26.036H51.05v-41.058h5.02a4.13 4.13 0 011.011.072zM21.73 299.108a8.658 8.658 0 003.61-.65 6.638 6.638 0 002.528-1.805 7.984 7.984 0 001.59-2.889c.36-1.255.507-2.561.433-3.864v-24.339h9.497V289.9a18.918 18.918 0 01-1.228 6.933 15.233 15.233 0 01-3.611 5.417 15.524 15.524 0 01-5.561 3.611 20.408 20.408 0 01-7.222 1.264 20.807 20.807 0 01-7.403-1.264 16.176 16.176 0 01-5.561-3.611 15.166 15.166 0 01-3.611-5.417 18.92 18.92 0 01-1.228-6.933v-24.339h9.642v24.303a12.64 12.64 0 00.541 3.864 8.128 8.128 0 001.59 2.925 6.493 6.493 0 002.563 1.805 8.55 8.55 0 003.43.65z" fill="#0E273D"/><path fill-rule="evenodd" clip-rule="evenodd" d="M99.08 265.561v41.058h16.502c2.227.047 4.447-.27 6.572-.939a13.772 13.772 0 004.839-2.6 11.11 11.11 0 002.961-3.936 11.696 11.696 0 001.048-4.875 8.344 8.344 0 00-2.095-5.561 11.553 11.553 0 00-6.03-3.178 14.787 14.787 0 003.213-1.589 9.846 9.846 0 002.167-2.058 8.065 8.065 0 001.228-2.419c.26-.855.394-1.743.397-2.637a11.845 11.845 0 00-.867-4.622 8.225 8.225 0 00-2.744-3.611 13.242 13.242 0 00-4.875-2.239 28.018 28.018 0 00-7.222-.794H99.079zm14.48 17.297h-4.947v-10.183h5.561c.932-.003 1.863.081 2.78.252a4.85 4.85 0 011.95.867c.506.408.893.944 1.12 1.553.268.79.39 1.622.361 2.455a5.778 5.778 0 01-.47 2.492 3.6 3.6 0 01-1.336 1.517 5.52 5.52 0 01-2.166.794c-.942.166-1.897.25-2.853.253zm-4.947 16.575v-10.219h6.644a11.628 11.628 0 012.997.325 5.305 5.305 0 011.914.975c.469.403.819.928 1.011 1.516.195.657.292 1.338.289 2.022a9.015 9.015 0 01-.253 1.95 4.523 4.523 0 01-.938 1.734 5.134 5.134 0 01-1.878 1.228 8.306 8.306 0 01-3.07.469h-6.716z" fill="#0E273D"/><path d="M125.909 161.561c-6.283-29.936-21.341-51.603-35.063-75.833C79.254 59.728 67.409 33.367 65.568 0c-18.886 36.833-15.203 64.53-5.272 91.289 9.93 26.758 30.08 60.378 30.08 88.111-.505 13.686-3.286 23.725-11.339 33.439-8.053 9.714-19.32 7.655-32.753 11.23 2.998.795 5.85 1.517 8.812 2.059a53.28 53.28 0 009.244.866c20.439 0 37.592-1.3 49.653-15.202 12.061-13.903 16.25-29.684 11.916-50.231z" fill="url(#paint0_linear_879_21247)"/><path d="M128.69 160.622c-.289-1.372-.722-2.672-1.047-4.008-2.528-9.317-14.047-35.858-38.82-75.833l-.36-.506c2.238 5.85 15.997 32.861 16.899 41.925.903 9.064 4.045 16.647 3.612 24.122-.867 13.65-11.34 25.748-18.598 33.006-.722 12.675-6.716 45.861-43.875 51.061 2.42.65 4.767 1.192 7.223 1.625a66.15 66.15 0 0011.916 1.083 71.947 71.947 0 0018.417-2.708 73.258 73.258 0 008.558-2.889 70.737 70.737 0 0020.114-13.397 48.515 48.515 0 002.347-2.383 56.376 56.376 0 0013.614-51.098zm-105.227 4.369v-.577c-3.54-13.073-.795-30.803 8.883-55.503a266.316 266.316 0 00-18.561 26.361c-23.256 40.842-9.93 62.833 1.878 76.158-4.261-12.819-.795-34.125 7.8-46.439z" fill="#16406D"/><path d="M72.068 37.664s.578 2.383 1.95 6.355c1.373 3.973 3.611 9.534 6.464 16.142 2.853 6.608 6.428 14.228 10.292 22.389s7.728 17.008 11.339 25.964a142.981 142.981 0 014.911 13.65 61.863 61.863 0 012.78 13.939c.41 4.419.252 8.873-.469 13.252a46.616 46.616 0 01-8.739 19.934 63.306 63.306 0 01-5.092 5.741c-1.516 1.481-2.78 2.564-3.61 3.287l-1.337 1.083s1.733-1.697 4.478-4.839a58.848 58.848 0 004.514-6.067 53.895 53.895 0 004.442-8.558 44.06 44.06 0 002.852-10.833c.62-4.197.729-8.453.325-12.675a59.313 59.313 0 00-2.852-13.253c-1.409-4.442-3.07-8.956-4.767-13.397-3.611-8.956-7.222-17.73-10.834-26a628.928 628.928 0 01-9.425-22.859c-2.636-6.752-4.405-12.53-5.488-16.61a62.58 62.58 0 01-1.084-4.767l-.65-1.878z" fill="#DF625F"/><path d="M90.377 179.4c-21.848 16.358-59.836 10.833-66.95-14.445-10.328 11.736-13.65 33.656-7.764 46.475a64.99 64.99 0 0030.658 18.994c40.625-4.766 43.73-38.422 44.056-51.024z" fill="#055190"/><defs><linearGradient id="paint0_linear_879_21247" x1="121.576" y1="204.208" x2="-11.096" y2="17.875" gradientUnits="userSpaceOnUse"><stop stop-color="#810060"/><stop offset=".51" stop-color="#D5642A"/><stop offset="1" stop-color="#FCB457"/></linearGradient></defs></svg>
